!!!!SEGMENT: pl-kk--kk-i-284--001_anonim--sanctorum-meritis.krn
!!!cenid: 17xx:2096
!!!COM: Anonim
!!!COM-rismid: pe30004985
!!!CDT:
!!!CNT:
!!!OTL: Sanctorum meritis
!!!PDT:
!!!AGN: Sacred
!!!SMS-siglum: PL-Kk
!!!SMS-shelfmark: Kk.I.284
!!!SMS-shelfwork: 001 W
!!!SMS-variant:
!!!SMS-altvar:
!!!NIFC-rismid: 1001147650
!!!URL-scan: http://repozytorium.nifc.pl/skany/pl-kk-nut--i-284
!!!ONB-nifc: UWAGA: utwory w zbiorze: 1. Sanctorum meritis, 2. Christo profusum sanguinem
**kern	**text	**text	**kern	**fba	**text	**text	**text	**text	**kern	**text	**text	**text	**text	**kern	**text	**text	**text	**text	**kern	**text	**text	**text	**text
*part5	*part5	*part5	*part4	*part4	*part4	*part4	*part4	*part4	*part3	*part3	*part3	*part3	*part3	*part2	*part2	*part2	*part2	*part2	*part1	*part1	*part1	*part1	*part1
*staff5	*staff5	*staff5	*staff4	*staff4	*staff4	*staff4	*staff4	*staff4	*staff3	*staff3	*staff3	*staff3	*staff3	*staff2	*staff2	*staff2	*staff2	*staff2	*staff1	*staff1	*staff1	*staff1	*staff1
*Iempty	*	*	*Iempty	*	*	*	*	*	*Itenor	*	*	*	*	*Ialto	*	*	*	*	*Ivox	*	*	*	*
*I"Baſso Ripieno.	*	*	*I"Baſso.	*	*	*	*	*	*I"Tenore	*	*	*	*	*I"Alto.	*	*	*	*	*I"Canto.	*	*	*	*
*I'B.	*	*	*I'B	*	*	*	*	*	*I'T	*	*	*	*	*I'A	*	*	*	*	*I'S	*	*	*	*
*clefF4	*	*	*clefF4	*	*	*	*	*	*clefC4	*	*	*	*	*clefC3	*	*	*	*	*clefC1	*	*	*	*
*	*	*	*	*	*	*	*	*	*ok[f#f#]	*	*	*	*	*	*	*	*	*	*	*	*	*	*
*k[f#]	*	*	*k[f#]	*	*	*	*	*	*k[f#]	*	*	*	*	*k[f#]	*	*	*	*	*k[f#]	*	*	*	*
*G:	*	*	*G:	*	*	*	*	*	*G:	*	*	*	*	*G:	*	*	*	*	*G:	*	*	*	*
*M3/2	*	*	*M3/2	*	*	*	*	*	*M3/2	*	*	*	*	*M3/2	*	*	*	*	*M3/2	*	*	*	*
=1	=1	=1	=1	=1	=1	=1	=1	=1	=1	=1	=1	=1	=1	=1	=1	=1	=1	=1	=1	=1	=1	=1	=1
*2\right	*	*	*2\right	*	*	*	*	*	*2\right	*	*	*	*	*2\right	*	*	*	*	*2\right	*	*	*	*
!LO:TX:a:i:t=Lentè	!	!	!LO:TX:a:i:t=I	!	!	!	!	!	!	!	!	!	!	!	!	!	!	!	!LO:TX:a:i:t=I	!	!	!	!
2G\	1. San-	3. Hi	2G\	.	1. San-	2. Hi	3. Cae-	4. Te	2Bn\	1.San-	 2. Hi	3. Cae-	4. Te	2g\	1. San-	2. Hi	3. Cae-	4. Te	2dd\	1. San-	2. Hi	3. Cae-	4. Te
2Cn/	-cto-	pro	2Cn/	65	-cto-	pro	-dun-	Sum-	(4A/	-cto-	pro	-dun-	sum-	2g\	-cto-	pro	-dun-	sum-	(4ccn\	-cto-	pro	-dun-	Sum-
.	.	.	.	.	.	.	.	.	4G/)	.	.	.	.	.	.	.	.	.	4b\)	.	.	.	.
2D/	-rum	Te	2D/	.	-rum	Te	-t(ur)	-ma	2F#X/	-rum	Te	-tur	-ma	2d\	-rum	te	-tur	-ma	2a\	-rum	te	-tur	-ma
=2	=2	=2	=2	=2	=2	=2	=2	=2	=2	=2	=2	=2	=2	=2	=2	=2	=2	=2	=2	=2	=2	=2	=2
2.G\	me-	Fu-	2.G\	.	me-	Fu-	gla-	De-	2.G/	me-	Fu-	gla-	De-	2.d\	me-	fu-	gla-	De-	2.b\	me-	fu-	gla-	De-
4GG/	-ri-	-ri-	4GG/	.	-ri-	-ri-	-di-	-i-	4G/	-ri-	-ri-	-di-	-i-	4d\	-ri-	-ri-	-di-	-i-	4b\	-ri-	-ri-	-di-	-i-
2GG/	-tis	-as,	2GG/	.	-tis	-as,	-js	-tas	2G/	-tis	-as	-js	-tas	2d\	-tis	-as	-js	-tas	2b\	-tis	-as	-js	-tas
=3	=3	=3	=3	=3	=3	=3	=3	=3	=3	=3	=3	=3	=3	=3	=3	=3	=3	=3	=3	=3	=3	=3	=3
2.G\	in-	at-	2.G\	.	in-	at-	mo-	u-	(4G/	in-	at-	mo-	u-	2.g\	in-	at-	mo-	u-	(4b\	in-	at-	mo-	u-
.	.	.	.	.	.	.	.	.	4A/)	.	.	.	.	.	.	.	.	.	4cc\)	.	.	.	.
.	.	.	.	.	.	.	.	.	4B/	-cly-	-q(ue)	-re	-na-	.	.	.	.	.	4dd\	-cly-	-q(ue)	-re	-na-
4E\	-cly-	-q(ue)	4E\	6\	-cly-	-q(ue)	-re	-na-	4c#X/	.	.	.	.	4g\	-cly-	-q(ue)	-re	-na-	4ee\	.	.	.	.
!	!	!	!	!	!	!	!	!	!	!	!	!	!	!	!	!	!	!	!LO:TX:a:t=P:problem:♯above	!	!	!	!
2D\	-ta	mi-	2D\	.	-ta	mi-	bi-	-que	2d\	-ta	mi-	bi-	-que	(4f#X\	-ta	mi-	bi-	-que	2ff#X\	-ta	mi-	bi-	-que
.	.	.	.	.	.	.	.	.	.	.	.	.	.	4g\)	.	.	.	.	.	.	.	.	.
=4	=4	=4	=4	=4	=4	=4	=4	=4	=4	=4	=4	=4	=4	=4	=4	=4	=4	=4	=4	=4	=4	=4	=4
2.A\	gau-	-nas	2.A\	.	gau-	-nas	-den-	pos-	2.d\	gau-	-nas	-den-	poſ-	2.a\	gau-	-nas	-den-	pos-	2.ee\	gau-	-nas	-den-	pos-
!LO:SIC:v:l:v=2:s=tri-	!	!	!LO:SIC:v:l:v=2:s=tri-	!	!	!	!	!	!LO:SIC:v:l:v=2:s=tri-	!	!	!	!	!	!	!	!	!	!	!	!	!	!
4AA/	-di-	tru-	4AA/	.	-di-	tru-	-ti-	-ci-	4c#X\	-di-	tru-	-ti-	-ci-	4a\	-di-	tri-	-ti-	-ci-	4ee\	-di-	tri-	-ti-	-ci-
!LO:TX:t=P:problem:oddech jako rozdzielacz słów:global	!	!	!LO:TX:t=P:problem:oddech jako rozdzielacz słów:global	!	!	!	!	!	!	!	!	!	!	!	!	!	!	!	!LO:TX:t=P:problem:oddech jako rozdzielacz słów:global	!	!	!	!
2D,</	-a	-ces	2D,</	.	-a,	-ces,	-um:	-m(us):	2d\	-a	-ces	-um	-m(us).	2a\	-a,	-ces,	-um,	-m(us),	2dd,<\	-a,	-ces,	-um,	-m(us):
=5	=5	=5	=5	=5	=5	=5	=5	=5	=5	=5	=5	=5	=5	=5	=5	=5	=5	=5	=5	=5	=5	=5	=5
2D/	pan-	cal-	2D\	#	pan-	Cal-	Non	Ut	2F#X/	pan-	cal-	Non	ut	2d\	pan-	cal-	non	Ut	2a\	pan-	cal-	non	ut
2BB/	-ga-	-câ-	2BB/	.	-ga-	-câ-	mur-	cul-	2F#/	-ga-	-câ-	mur-	cul-	2d\	-ga-	-câ-	mur-	cul-	2dd\	-ga-	-câ-	mur-	cul-
2E\	-m(us)	-runt	2E\	#	-m(us)	-runt	-mur	-pas	2G#X/	-m(us)	-runt	-mur	-pas	2e\	-m(us)	-runt	-mur	-pas	2b\	-m(us)	-runt	-mur	-pas
=6	=6	=6	=6	=6	=6	=6	=6	=6	=6	=6	=6	=6	=6	=6	=6	=6	=6	=6	=6	=6	=6	=6	=6
2.AA/	So-	ho-	2.AA/	n	So-	ho-	re-	a-	2.A/	So-	ho-	re-	a-	2.e\	So-	ho-	re-	a-	2.ccn\	So-	ho-	re-	a-
8BB/L	-ci-	-mi-	8BB/L	_	-ci-	-mi-	-ſo-	-bi-	4G/	-ci-	-mi-	-ſo-	-bi-	4e\	-ci-	-mi-	-ſo-	-bi-	4b\	-ci-	-mi-	-ſo-	-bi-
8C/J	.	.	8C/J	.	.	.	.	.	.	.	.	.	.	.	.	.	.	.	.	.	.	.	.
2D/	-j	-num	2D/	#	-j,	-num	-nat,	-gas,	2F#/	-j	-nu(m)	-nat,	-gas,	2f#X\	-j,	-num	-nat,	-gas	2a\	-j	-num,	-nat,	-gas
=7	=7	=7	=7	=7	=7	=7	=7	=7	=7	=7	=7	=7	=7	=7	=7	=7	=7	=7	=7	=7	=7	=7	=7
2G\	ge-	sae-	2G\	.	ge-	sae-	non	no-	2G/	ge-	sae-	non	no-	2g\	ge-	sae-	non	no-	2b\	ge-	sae-	non	no-
2A\	-sta-	-va-	2A\	6	-sta-	-va-	que-	-xi-	2F#/	-sta-	-va-	que-	-xi-	(4cn\	-sta-	-va-	que-	-xi-	2a\	-sta-	-va-	que-	-xi-
.	.	.	.	.	.	.	.	.	.	.	.	.	.	4d\)	.	.	.	.	.	.	.	.	.
2A\	-que	-q(ue)	2A\	5	-q(ue)	-q(ue)	-ri-	-a	2E/	-q(ue)	-q(ue)	-ri-	-a	4e\	-q(ue)	-q(ue)	-ri-	-a	2g/	-q(ue)	-q(ue)	-ri-	-a
.	.	.	.	.	.	.	.	.	.	.	.	.	.	4g\	.	.	.	.	.	.	.	.	.
=8	=8	=8	=8	=8	=8	=8	=8	=8	=8	=8	=8	=8	=8	=8	=8	=8	=8	=8	=8	=8	=8	=8	=8
!	!	!	!	!	!	!	!	!	!	!	!	!	!	!LO:TX:a:t=P:problem:♯above	!	!	!	!	!LO:TX:a:t=P:problem:♯above	!	!	!	!
2.B\	for-	ver-	2.B\	5 4	for-	Ver-	-mo-	sub-	2.E/	for-	Ver-	-mo-	sub-	2.f#X\	for-	Ver-	-mo-	sub-	2.f#X/	for-	Ver-	-mo-	sub-
4BB/	-ti-	-be-	4BB/	3#r	-ti-	-be-	-ni-	-tra-	4D#X/	-ti-	-be-	-ni-	-tra-	4f#\	-ti-	-be-	-ni-	-tra-	4f#/	-ti-	-be-	-ni-	-tra-
2E\	-a	-ra	2E\	.	-a,	-ra	-a	-has,	2E/	-a	-ra	-a	-has	2g\	-a.	-ra	-a	-ha[s]	2e/	-a	-ra,	-a	-has
!	!	!	!LO:LB:g=original	!	!	!	!	!	!LO:LB:g=original	!	!	!	!	!LO:LB:g=original	!	!	!	!	!LO:LB:g=original	!	!	!	!
=9	=9	=9	=9	=9	=9	=9	=9	=9	=9	=9	=9	=9	=9	=9	=9	=9	=9	=9	=9	=9	=9	=9	=9
1.r	.	.	1.r	.	.	.	.	.	1.r	.	.	.	.	2e\	1. gli-	2. his	3. sed	4. des	2b\	1.gli-	2. his	3. sed	4. des
.	.	.	.	.	.	.	.	.	.	.	.	.	.	2.e\	-scens	ceſ-	cor-	pa-	(4ee\	-scens	ceſ-	cor-	pa-
.	.	.	.	.	.	.	.	.	.	.	.	.	.	.	.	.	.	.	4ff#\)	.	.	.	.
.	.	.	.	.	.	.	.	.	.	.	.	.	.	.	.	.	.	.	(4ee\	fert	-sit	-de	-cem
.	.	.	.	.	.	.	.	.	.	.	.	.	.	4e\	fert	-sit	-de	-cem	4dd\)	.	.	.	.
!LO:LB:g=original	!	!	!	!	!	!	!	!	!	!	!	!	!	!	!	!	!	!	!	!	!	!	!
=10	=10	=10	=10	=10	=10	=10	=10	=10	=10	=10	=10	=10	=10	=10	=10	=10	=10	=10	=10	=10	=10	=10	=10
2E\	gli-	his	2E\	6\ #	1. gli-	2. his	3. sed	4. des	2B\	1. gli-	2. his	3. sed	4. des	2.e\	a-	la-	ta-	Fa-	2.cc#X\	a-	la-	ta-	Fa-
(4A\	-scens	ceſ-	(4A\	.	-scens	ceſ-	cor-	pa-	2A\	-scens	ceſ-	cor-	Pa-	.	.	.	.	.	.	.	.	.	.
4B\)	.	.	4B\)	.	.	.	.	.	.	.	.	.	.	4e\	-ni-	-ce-	-ci-	-mu-	4cc#\	-ni-	-ce-	-ci-	-mu-
(4A\	fert	-sit	(4A\	.	fert	-sit	-de	-cem	2A\	fert	-sit	-de	-cem	2e\	-m(us)	-rans,	-tô	-lis	2cc#\	-m(us)	-rans,	-to	-lis,
4G\)	.	.	4G\)	.	.	.	.	.	.	.	.	.	.	.	.	.	.	.	.	.	.	.	.
=11	=11	=11	=11	=11	=11	=11	=11	=11	=11	=11	=11	=11	=11	=11	=11	=11	=11	=11	=11	=11	=11	=11	=11
*	*	*	*	*	*	*	*	*	*	*	*	*	*	*	*	*	*	*	*	*ij	*	*ij	*
2.F#X\	a-	la-	2.F#X\	6_	a-	la-	ta-	Fa-	2.A/	a-	la-	ta-	fa-	1.r	.	.	.	.	2a\	gli-	his	sed	des
.	.	.	.	x	.	.	.	.	.	.	.	.	.	.	.	.	.	.	(4dd\	-scens	ceſ-	cor-	pa-
4F#\	-ni-	-ce-	4F#\	.	-ni-	-ce-	-ci-	-mu-	4A/	-ni-	-ce-	-ci-	-mu-	.	.	.	.	.	4ee\)	.	.	.	.
2F#\	-m(us)	-rans	2F#\	.	-m(us),	-rans,	-to	-lis	2A/	-m(us)	-rans,	-tô	-lis,	.	.	.	.	.	(4dd\	fert	-sit	-de	-cem
.	.	.	.	.	.	.	.	.	.	.	.	.	.	.	.	.	.	.	4ccn\)	.	.	.	.
=12	=12	=12	=12	=12	=12	=12	=12	=12	=12	=12	=12	=12	=12	=12	=12	=12	=12	=12	=12	=12	=12	=12	=12
*	*	*ij	*	*	*	*	*ij	*ij	*	*ij	*	*ij	*	*	*	*	*	*	*	*	*	*	*
2G\	gli-	his	2G\	.	gli-	his	sed	des	2B\	gli-	his	sed	des	2d\	gli-	his	sed	des	2.b\	a-	la-	ta-	Fa-
!	!	!	!LO:TX:a:t=P:problem:♮above	!	!	!	!	!	!	!	!	!	!	!	!	!	!	!	!	!	!	!	!
2.BBn/	-scens	ceſ-	2.BBn/	6_	-scens	ceſ-	cor-	pa-	2.B\	-scens	ceſ-	cor-	pa-	4g\	-scens	ceſ-	cor-	pa-	.	.	.	.	.
.	.	.	.	x	.	.	.	.	.	.	.	.	.	4a\	.	.	.	.	4b\	-ni-	-ce-	-ci-	-mu-
.	.	.	.	.	.	.	.	.	.	.	.	.	.	(4g\	fert	-sit	-de	-cem	2b\	-m(us)	-rans,	-to	-lis
*	*	*	*	*	*	*	*	*	*	*	*	*	*	*	*	*	*	*	*	*Xij	*	*Xij	*
4BB/	fert	-sit	4BB/	.	fert	-sit	-de	-cem	4B\	fert	-sit	-de	-cem	4f#\)	.	.	.	.	.	.	.	.	.
=13	=13	=13	=13	=13	=13	=13	=13	=13	=13	=13	=13	=13	=13	=13-	=13	=13	=13	=13	=13	=13	=13	=13	=13
2.C/	a-	la-	2.C/	.	a-	la-	ta-	Fa-	2.G/	a-	la-	ta-	fa-	2.e\	a-	la-	ta-	Fa-	1.r	.	.	.	.
!	!	!	!	!	!	!	!	!	!	!	!	!	!	!LO:SIC:v:l:v=1:s=-ni-	!	!	!	!	!	!	!	!	!
4C/	-ni-	-ce-	4C/	.	-ni-	-ce-	-ci-	-mu-	4G/	-ni-	-ce-	-ci-	-mu-	4e\	-mi-	-ce-	-ci-	-mu-	.	.	.	.	.
2C/	-m(us)	-rans	2C/	.	-m(us),	-rans	-to	-lis	2G/	-m(us)	-rans	-tô	-lis,	2e\	-m(us),	-rans	-to	-lis,	.	.	.	.	.
*	*	*Xij	*	*	*	*	*Xij	*Xij	*	*Xij	*	*Xij	*	*	*	*	*	*	*	*	*	*	*
=14	=14	=14	=14	=14	=14	=14	=14	=14	=14	=14	=14	=14	=14	=14	=14	=14	=14	=14	=14	=14	=14	=14	=14
*	*ij	*	*	*	*ij	*ij	*	*	*	*	*ij	*	*ij	*	*ij	*ij	*	*	*	*	*ij	*	*ij
2C/	gli-	his	2C/	.	gli-	his	sed	des	2E/	gli-	his	sed	des	2e\	gli-	his	sed	des	2g/	gli-	his	sed	des
2AA/	-scens	ceſ-	2AA/	.	-scens	ceſ-	cor-	pa-	(4A/	-scens	ceſ-	cor-	pa-	2e\	-scens	ceſ-	cor-	pa-	(4cc\	-scens	ceſ-	cor-	pa-
.	.	.	.	.	.	.	.	.	4B/)	.	.	.	.	.	.	.	.	.	4dd\)	.	.	.	.
2AA/	fert	-sit	2AA/	.	fert	-sit	-de	-cem	(4A/	fert	-sit	-de	-cem	2e\	fert	-sit	-de	-cem	(4cc\	fert	-sit	-de	-cem
.	.	.	.	.	.	.	.	.	4G/)	.	.	.	.	.	.	.	.	.	4b\)	.	.	.	.
=15	=15	=15	=15	=15	=15	=15	=15	=15	=15	=15	=15	=15	=15	=15	=15	=15	=15	=15	=15	=15	=15	=15	=15
!	!	!	!	!	!	!	!	!	!LO:TX:b:t=P:problem:♯below	!	!	!	!	!	!	!	!	!	!	!	!	!	!
2.D\	a-	la-	2.D\	#	a-	la-	ta-	Fa-	2.F#X/	a-	la-	ta-	fa-	2.f#\	a-	la-	ta-	fa-	2.a\	a-	la-	ta-	Fa-
!	!	!	!	!	!	!	!	!	!	!	!	!	!	!LO:SIC:v:l:v=1:s=-ni-	!	!	!	!	!	!	!	!	!
4D\	-ni-	-ce-	4D\	.	-ni-	-ce-	-ci-	-mu-	4F#/	-ni-	-ce-	-ci-	-mu-	4e\	-mi-	-ce-	-ci-	-mu-	4a\	-ni-	-ce-	-ci-	-mu-
2D,<\	-m(us)	-rans	2D\	.	-m(us),	-rans	-to	-lis,	2F#/	-m(us)	-rans	-to	-lis,	2d\	-m(us),	-rans	-tô	-lis,	2a\	-m(us)	-rans,	-tô	-lis
*	*Xij	*	*	*	*Xij	*Xij	*	*	*	*	*Xij	*	*Xij	*	*Xij	*Xij	*	*	*	*	*Xij	*	*Xij
=16	=16	=16	=16	=16	=16	=16	=16	=16	=16	=16	=16	=16	=16	=16	=16	=16	=16	=16	=16	=16	=16	=16	=16
2.D\	pro-	for-	2.D/	.	pro-	for-	mens	ut	2.F#/	pro-	for-	mens	ut	2.d\	pro-	for-	mens	ut	2.a\	pro-	for-	mens	ut
4BB/	-me-	-ti-	4BB/	6\	-me-	-ti-	be-	Ti-	4G#X/	-me-	-ti-	be-	Ti-	4d\	-me-	-ti-	be-	ti-	4b\	-me-	-ti-	be-	Ti-
!	!	!	!	!	!	!	!	!	!	!	!	!	!	!	!	!	!	!	!LO:TX:a:t=P:problem:♮above	!	!	!	!
2AA/	-re	-ter	2AA/	.	-re	-ter	-nè	-bi	2A/	-re	-ter	-nè	-bi	2e\	-re	-ter	-nè	-bi	2ccn\	-re	-ter	-ne	-bi
=17	=17	=17	=17	=17	=17	=17	=17	=17	=17	=17	=17	=17	=17	=17	=17	=17	=17	=17	=17	=17	=17	=17	=17
1E	can-	un-	1E	43	can-	un-	conſ-	ju-	1A	Can-	un-	conſ-	glo-	1e	Can-	un-	conſ-	glo-	1b	can-	un-	conſ-	glo-
!	!	!	!	!	!	!	!	!	!	!	!	!	!	!	!	!	!	!	!LO:SIC:v:t=custos a	!	!	!	!
2E\	-ti-	-gu-	2E\	#	-ti-	-gu-	-ci-	-gi-	2G#X/	-ti-	-gu-	-ci-	-ri-	2e\	-ti-	-gu-	-ci-	-ri-	2b\	-ti-	-gu-	-ci-	-ri-
!	!	!	!LO:LB:g=original	!	!	!	!	!	!	!	!	!	!	!	!	!	!	!	!LO:LB:g=original	!	!	!	!
=18	=18	=18	=18	=18	=18	=18	=18	=18	=18	=18	=18	=18	=18	=18	=18	=18	=18	=18	=18	=18	=18	=18	=18
!	!	!	!	!	!	!	!	!	!LO:TX:t=P:problem:oddech jako rozdzielacz słów:global	!	!	!	!	!LO:TX:t=P:problem:oddech jako rozdzielacz słów:global	!	!	!	!	!	!	!	!	!
1AA,<	-b(us)	-la	1AA	.	-b(us),	-la,	-a,	-ter	1A,<	-b(us),	-la,	-a	-am	1e,<	-b(us)	-la,	-a	-am	1a,<	-bus	-la,	-a,	-am
2Cn/	Vi-	nec	2Cn/	.	Vi-	nec	con-	An-	2cn\	Vi-	nec	con-	An-	2e\	Vi-	nec	con-	an-	2ee\	Vi-	Nec	con-	an-
!	!	!	!	!	!	!	!	!	!LO:LB:g=original	!	!	!	!	!	!	!	!	!	!	!	!	!	!
=19	=19	=19	=19	=19	=19	=19	=19	=19	=19	=19	=19	=19	=19	=19	=19	=19	=19	=19	=19	=19	=19	=19	=19
(1D	-cto-	car-	2D\	.	-cto-	car-	-ſer-	-no-	2A/	-cto-	car-	-ſer-	-no-	2f#\	-cto-	car-	-ſer-	-no-	2dd\	-cto-	car-	-ſer-	-no-
.	.	.	4D,<\	.	-rum	-pſit	-vat,	-rum	4A,</	-rum	-pſit	-vat	-rum	4f#,<\	-rum	-pſit	-vat	-rum	4dd,<\	-rum	-pſit	-vat	-rum
.	.	.	4D\	.	Vi-	nec	con-	in	4A/	Vi-	nec	con-	in	4f#\	Vi-	nec	con-	in	4cc\	Vi-	nec	con-	in
4E\	.	.	(4E\	.	.	.	.	.	(4G/	.	.	.	.	[<2g\	-cto-	car-	-ſer-	ſe-	(4b\	.	.	.	.
4BB\)	.	.	4BB/)	.	.	.	.	.	4B/)	.	.	.	.	.	.	.	.	.	4dd\)	.	.	.	.
!LO:LB:g=original	!	!	!	!	!	!	!	!	!	!	!	!	!	!LO:LB:g=original	!	!	!	!	!	!	!	!	!
=20	=20	=20	=20	=20	=20	=20	=20	=20	=20	=20	=20	=20	=20	=20	=20	=20	=20	=20	=20	=20	=20	=20	=20
2.C/	.	.	2.C/	6 5_	-cto-	car-	-ser-	Se-	2.A/	-cto-	car-	-ser-	se-	2.g\]	.	.	.	.	2.ccn\	-cto-	car-	-ſer-	se-
4C/	-rum	-psit	4C/	x	-rum	-psit	-vat	.	4G/	-rum	-psit	-vat	.	4g\	-rum	-psit	-vat	-ri-	4b\	-rum	-pſit	-vat	.
2D\	ge-	pe-	2D\	.	Ge-	pe-	pa-	ri-	2F#/	Ge-	pe-	pa-	-ri-	2f#\	ge-	pe-	pa-	-em	2a\	ge-	pe-	pa-	.
=21	=21	=21	=21	=21	=21	=21	=21	=21	=21	=21	=21	=21	=21	=21	=21	=21	=21	=21	=21	=21	=21	=21	=21
2BB/	-nus	-ne-	2BB/	6	-n(us)	-ne-	-ti-	-em	2G/	-n(us)	-ne-	-ti-	-em	2g\	-n(us)	-ne-	-ti-	ca-	2b\	-nus	-ne-	-ti-	-ri-
2C/	o-	-tra-	2Cn/	6 5_	o-	-tra-	-en-	ca-	2cn\	o-	-tra-	-en-	Ca-	2g\	o-	-tra-	-en-	.	2.a\	o-	-tra-	-en-	-em
2D\	-pti-	-li-	2D/	x	-pti-	-li-	-ti-	.	2A\	-pti-	-li-	-ti-	.	2f#\	-pti-	-li-	-ti-	.	.	.	.	.	.
.	.	.	.	.	.	.	.	.	.	.	.	.	.	.	.	.	.	.	4a\	-pti-	-li-	-ti-	ca-
=22	=22	=22	=22	=22	=22	=22	=22	=22	=22	=22	=22	=22	=22	=22	=22	=22	=22	=22	=22	=22	=22	=22	=22
1GG,<	-mum	-a	1GG,<	.	-mum,	-a,	-am:	-nant,	1B,<	-mum,	-a	-am,	-nant,	1g,<	-mum,	-a	-am	-nant,	1g,<	-mum,	-a	-am	-nant,
2G\	Vi-	nec	2G\	.	Vi-	Nec	Con-	an-	2d\	Vi-	nec	con-	An-	2g\	Vi-	nec	con-	an-	2b\	Vi-	nec	con-	an-
=23	=23	=23	=23	=23	=23	=23	=23	=23	=23	=23	=23	=23	=23	=23	=23	=23	=23	=23	=23	=23	=23	=23	=23
2.D/	-cto-	car-	2.D\	.	-cto-	car-	-ſer-	-no-	2.d\	-cto-	car-	-ſer-	-no-	2.f#\	-cto-	car-	-ſer-	-no-	2.a\	-cto-	car-	-ſer-	-no-
4D/	-rum	-psit	4D\	.	-rum	-pſit	-vat	-ru(m)	4d\	-rum	-pſit	-vat	-rum	4f#\	-rum	-pſit	-vat	-rum	4a\	-rum	-psit	-vat	-rum
2G\	ge-	pe-	2G\	.	ge-	pe-	pa-	in	2d\	ge-	pe-	pa-	in	2g\	ge-	pe-	pa-	in	2b\	Ge-	pe-	pa-	in
=24	=24	=24	=24	=24	=24	=24	=24	=24	=24	=24	=24	=24	=24	=24	=24	=24	=24	=24	=24	=24	=24	=24	=24
2C/	-n(us)	-ne-	2C/	6 5	-n(us)	-ne-	-ti-	se-	2e\	-n(us)	-ne-	-ti-	se-	2g\	-n(us)	-ne-	-ti-	se-	2cc\	-n(us)	-ne-	-ti-	se-
2.D/	o-	-tra-	2.D\	5 43r#	o-	-tra-	-en-	-riem	2.d\	o-	-tra-	-en-	-riem	2g\	o-	-tra-	-en-	-riem	2.a\	o-	-tra-	-en-	-riem
.	.	.	.	.	.	.	.	.	.	.	.	.	.	2f#\	-pti-	-li-	-ti-	ca-	.	.	.	.	.
4D/	-pti-	-li-	4D\	.	-pti-	-li-	-ti-	ca-	4d\	-pti-	-li-	-ti-	Ca-	.	.	.	.	.	4a\	-pti-	-li-	-ti-	ca-
=25	=25	=25	=25	=25	=25	=25	=25	=25	=25	=25	=25	=25	=25	=25	=25	=25	=25	=25	=25	=25	=25	=25	=25
!LO:N:vis=0	!	!	!	!	!	!	!	!	!	!	!	!	!	!	!	!	!	!	!	!	!	!	!
1.GG;	-mum	-a	1.GG;	.	-mum.	-a.	-am.	-nant.	1.d	-mum.	-a.	-am.	-nant.	1.g	-mum.	-a.	-am.	-nant.	1.b	-mum	-a	-am	-nant.
=26||	=26||	=26||	=26||	=26||	=26||	=26||	=26||	=26||	=26||	=26||	=26||	=26||	=26||	=26||	=26||	=26||	=26||	=26||	=26||	=26||	=26||	=26||	=26||
*M3/2	*	*	*M3/2	*	*	*	*	*	*M3/2	*	*	*	*	*M3/2	*	*	*	*	*M3/2	*	*	*	*
!	!	!	!LO:TX:t=P:problem:partia Basso Ripieno rozpisana	!	!	!	!	!	!LO:TX:t=P:problem:partia Basso Ripieno rozpisana	!	!	!	!	!LO:TX:t=P:problem:partia Basso Ripieno rozpisana	!	!	!	!	!LO:TX:t=P:problem:partia Basso Ripieno rozpisana	!	!	!	!
(4E\	2. Hi	4.Cae-	1.ryy	.	.	.	.	.	1.ryy	.	.	.	.	1.ryy	.	.	.	.	1.ryy	.	.	.	.
4F#\)	.	.	.	.	.	.	.	.	.	.	.	.	.	.	.	.	.	.	.	.	.	.	.
(4G\	sunt	-dun-	.	.	.	.	.	.	.	.	.	.	.	.	.	.	.	.	.	.	.	.	.
4A\)	.	.	.	.	.	.	.	.	.	.	.	.	.	.	.	.	.	.	.	.	.	.	.
(4B\	quos	-tur	.	.	.	.	.	.	.	.	.	.	.	.	.	.	.	.	.	.	.	.	.
4E\)	.	.	.	.	.	.	.	.	.	.	.	.	.	.	.	.	.	.	.	.	.	.	.
=27	=27	=27	=27	=27	=27	=27	=27	=27	=27	=27	=27	=27	=27	=27	=27	=27	=27	=27	=27	=27	=27	=27	=27
2.BB/	fa-	gla-	1.ryy	.	.	.	.	.	1.ryy	.	.	.	.	1.ryy	.	.	.	.	1.ryy	.	.	.	.
4BB/	-tu-	-di-	.	.	.	.	.	.	.	.	.	.	.	.	.	.	.	.	.	.	.	.	.
2E\	-e	-js	.	.	.	.	.	.	.	.	.	.	.	.	.	.	.	.	.	.	.	.	.
=28	=28	=28	=28	=28	=28	=28	=28	=28	=28	=28	=28	=28	=28	=28	=28	=28	=28	=28	=28	=28	=28	=28	=28
2F#\	mun-	mo-	1.ryy	.	.	.	.	.	1.ryy	.	.	.	.	1.ryy	.	.	.	.	1.ryy	.	.	.	.
2G\	-dus	-re	.	.	.	.	.	.	.	.	.	.	.	.	.	.	.	.	.	.	.	.	.
2E\	ab-	bi-	.	.	.	.	.	.	.	.	.	.	.	.	.	.	.	.	.	.	.	.	.
=29	=29	=29	=29	=29	=29	=29	=29	=29	=29	=29	=29	=29	=29	=29	=29	=29	=29	=29	=29	=29	=29	=29	=29
2.D/	-hor-	-den-	1.ryy	.	.	.	.	.	1.ryy	.	.	.	.	1.ryy	.	.	.	.	1.ryy	.	.	.	.
4D/	-ru-	-ti-	.	.	.	.	.	.	.	.	.	.	.	.	.	.	.	.	.	.	.	.	.
2D/	-it	-um,	.	.	.	.	.	.	.	.	.	.	.	.	.	.	.	.	.	.	.	.	.
!LO:LB:g=original	!	!	!	!	!	!	!	!	!	!	!	!	!	!	!	!	!	!	!	!	!	!	!
=30	=30	=30	=30	=30	=30	=30	=30	=30	=30	=30	=30	=30	=30	=30	=30	=30	=30	=30	=30	=30	=30	=30	=30
(4GG/	hunc	non	1.ryy	.	.	.	.	.	1.ryy	.	.	.	.	1.ryy	.	.	.	.	1.ryy	.	.	.	.
4AA/)	.	.	.	.	.	.	.	.	.	.	.	.	.	.	.	.	.	.	.	.	.	.	.
(4BB/	Fru-	mur-	.	.	.	.	.	.	.	.	.	.	.	.	.	.	.	.	.	.	.	.	.
4C/)	.	.	.	.	.	.	.	.	.	.	.	.	.	.	.	.	.	.	.	.	.	.	.
(4D/	-ctu	-mur	.	.	.	.	.	.	.	.	.	.	.	.	.	.	.	.	.	.	.	.	.
4E/)	.	.	.	.	.	.	.	.	.	.	.	.	.	.	.	.	.	.	.	.	.	.	.
=31	=31	=31	=31	=31	=31	=31	=31	=31	=31	=31	=31	=31	=31	=31	=31	=31	=31	=31	=31	=31	=31	=31	=31
2.F#\	va-	re-	1.ryy	.	.	.	.	.	1.ryy	.	.	.	.	1.ryy	.	.	.	.	1.ryy	.	.	.	.
4F#\	-cu-	-so-	.	.	.	.	.	.	.	.	.	.	.	.	.	.	.	.	.	.	.	.	.
2G\	-um	-nat	.	.	.	.	.	.	.	.	.	.	.	.	.	.	.	.	.	.	.	.	.
=32	=32	=32	=32	=32	=32	=32	=32	=32	=32	=32	=32	=32	=32	=32	=32	=32	=32	=32	=32	=32	=32	=32	=32
2.A\	Flo-	non	1.ryy	.	.	.	.	.	1.ryy	.	.	.	.	1.ryy	.	.	.	.	1.ryy	.	.	.	.
4A\	-ri-	que-	.	.	.	.	.	.	.	.	.	.	.	.	.	.	.	.	.	.	.	.	.
2A\	-b(us)	-ri-	.	.	.	.	.	.	.	.	.	.	.	.	.	.	.	.	.	.	.	.	.
=33	=33	=33	=33	=33	=33	=33	=33	=33	=33	=33	=33	=33	=33	=33	=33	=33	=33	=33	=33	=33	=33	=33	=33
2.B\	a-	-mo-	1.ryy	.	.	.	.	.	1.ryy	.	.	.	.	1.ryy	.	.	.	.	1.ryy	.	.	.	.
4BB/	-ri-	-ni-	.	.	.	.	.	.	.	.	.	.	.	.	.	.	.	.	.	.	.	.	.
2E\	-dum	-a	.	.	.	.	.	.	.	.	.	.	.	.	.	.	.	.	.	.	.	.	.
=34	=34	=34	=34	=34	=34	=34	=34	=34	=34	=34	=34	=34	=34	=34	=34	=34	=34	=34	=34	=34	=34	=34	=34
00.r	.	.	1.ryy	.	.	.	.	.	1.ryy	.	.	.	.	1.ryy	.	.	.	.	1.ryy	.	.	.	.
=35	=35	=35	=35	=35	=35	=35	=35	=35	=35	=35	=35	=35	=35	=35	=35	=35	=35	=35	=35	=35	=35	=35	=35
.	.	.	1.ryy	.	.	.	.	.	1.ryy	.	.	.	.	1.ryy	.	.	.	.	1.ryy	.	.	.	.
=36	=36	=36	=36	=36	=36	=36	=36	=36	=36	=36	=36	=36	=36	=36	=36	=36	=36	=36	=36	=36	=36	=36	=36
.	.	.	1.ryy	.	.	.	.	.	1.ryy	.	.	.	.	1.ryy	.	.	.	.	1.ryy	.	.	.	.
=37	=37	=37	=37	=37	=37	=37	=37	=37	=37	=37	=37	=37	=37	=37	=37	=37	=37	=37	=37	=37	=37	=37	=37
.	.	.	1.ryy	.	.	.	.	.	1.ryy	.	.	.	.	1.ryy	.	.	.	.	1.ryy	.	.	.	.
=38	=38	=38	=38	=38	=38	=38	=38	=38	=38	=38	=38	=38	=38	=38	=38	=38	=38	=38	=38	=38	=38	=38	=38
00.r	.	.	1.ryy	.	.	.	.	.	1.ryy	.	.	.	.	1.ryy	.	.	.	.	1.ryy	.	.	.	.
=39	=39	=39	=39	=39	=39	=39	=39	=39	=39	=39	=39	=39	=39	=39	=39	=39	=39	=39	=39	=39	=39	=39	=39
.	.	.	1.ryy	.	.	.	.	.	1.ryy	.	.	.	.	1.ryy	.	.	.	.	1.ryy	.	.	.	.
=40	=40	=40	=40	=40	=40	=40	=40	=40	=40	=40	=40	=40	=40	=40	=40	=40	=40	=40	=40	=40	=40	=40	=40
.	.	.	1.ryy	.	.	.	.	.	1.ryy	.	.	.	.	1.ryy	.	.	.	.	1.ryy	.	.	.	.
=41	=41	=41	=41	=41	=41	=41	=41	=41	=41	=41	=41	=41	=41	=41	=41	=41	=41	=41	=41	=41	=41	=41	=41
.	.	.	1.ryy	.	.	.	.	.	1.ryy	.	.	.	.	1.ryy	.	.	.	.	1.ryy	.	.	.	.
=42	=42	=42	=42	=42	=42	=42	=42	=42	=42	=42	=42	=42	=42	=42	=42	=42	=42	=42	=42	=42	=42	=42	=42
1.r	.	.	1.ryy	.	.	.	.	.	1.ryy	.	.	.	.	1.ryy	.	.	.	.	1.ryy	.	.	.	.
=43	=43	=43	=43	=43	=43	=43	=43	=43	=43	=43	=43	=43	=43	=43	=43	=43	=43	=43	=43	=43	=43	=43	=43
2E\	Con-	sed	1.ryy	.	.	.	.	.	1.ryy	.	.	.	.	1.ryy	.	.	.	.	1.ryy	.	.	.	.
2Gn\	-tem-	cor-	.	.	.	.	.	.	.	.	.	.	.	.	.	.	.	.	.	.	.	.	.
2E\	-pse-	-de	.	.	.	.	.	.	.	.	.	.	.	.	.	.	.	.	.	.	.	.	.
=44	=44	=44	=44	=44	=44	=44	=44	=44	=44	=44	=44	=44	=44	=44	=44	=44	=44	=44	=44	=44	=44	=44	=44
2.BB/	-re	ta-	1.ryy	.	.	.	.	.	1.ryy	.	.	.	.	1.ryy	.	.	.	.	1.ryy	.	.	.	.
4BB/	Tu-	-ci-	.	.	.	.	.	.	.	.	.	.	.	.	.	.	.	.	.	.	.	.	.
2E\	-i	-to	.	.	.	.	.	.	.	.	.	.	.	.	.	.	.	.	.	.	.	.	.
=45	=45	=45	=45	=45	=45	=45	=45	=45	=45	=45	=45	=45	=45	=45	=45	=45	=45	=45	=45	=45	=45	=45	=45
(4F#\	No-	mens	1.ryy	.	.	.	.	.	1.ryy	.	.	.	.	1.ryy	.	.	.	.	1.ryy	.	.	.	.
4D\	.	.	.	.	.	.	.	.	.	.	.	.	.	.	.	.	.	.	.	.	.	.	.
4E\	-mi-	be-	.	.	.	.	.	.	.	.	.	.	.	.	.	.	.	.	.	.	.	.	.
4F#\)	.	.	.	.	.	.	.	.	.	.	.	.	.	.	.	.	.	.	.	.	.	.	.
(4G\	-nis	-ne	.	.	.	.	.	.	.	.	.	.	.	.	.	.	.	.	.	.	.	.	.
4D\)	.	.	.	.	.	.	.	.	.	.	.	.	.	.	.	.	.	.	.	.	.	.	.
=46	=46	=46	=46	=46	=46	=46	=46	=46	=46	=46	=46	=46	=46	=46	=46	=46	=46	=46	=46	=46	=46	=46	=46
2.A\	aſ-	conſ-	1.ryy	.	.	.	.	.	1.ryy	.	.	.	.	1.ryy	.	.	.	.	1.ryy	.	.	.	.
4AA/	-se-	-ci-	.	.	.	.	.	.	.	.	.	.	.	.	.	.	.	.	.	.	.	.	.
!LO:SIC:v:t=custos F#	!	!	!	!	!	!	!	!	!	!	!	!	!	!	!	!	!	!	!	!	!	!	!
2AA/	-clae	-a	.	.	.	.	.	.	.	.	.	.	.	.	.	.	.	.	.	.	.	.	.
!LO:LB:g=original	!	!	!	!	!	!	!	!	!	!	!	!	!	!	!	!	!	!	!	!	!	!	!
=47	=47	=47	=47	=47	=47	=47	=47	=47	=47	=47	=47	=47	=47	=47	=47	=47	=47	=47	=47	=47	=47	=47	=47
2F#\	Je-	con-	1.ryy	.	.	.	.	.	1.ryy	.	.	.	.	1.ryy	.	.	.	.	1.ryy	.	.	.	.
2F#\	-su	-ſer-	.	.	.	.	.	.	.	.	.	.	.	.	.	.	.	.	.	.	.	.	.
2F#\	Rex	-vat	.	.	.	.	.	.	.	.	.	.	.	.	.	.	.	.	.	.	.	.	.
=48	=48	=48	=48	=48	=48	=48	=48	=48	=48	=48	=48	=48	=48	=48	=48	=48	=48	=48	=48	=48	=48	=48	=48
1Gn	bo-	patien-	1.ryy	.	.	.	.	.	1.ryy	.	.	.	.	1.ryy	.	.	.	.	1.ryy	.	.	.	.
2G\	-ne.	-tiam	.	.	.	.	.	.	.	.	.	.	.	.	.	.	.	.	.	.	.	.	.
=49	=49	=49	=49	=49	=49	=49	=49	=49	=49	=49	=49	=49	=49	=49	=49	=49	=49	=49	=49	=49	=49	=49	=49
*	*ij	*ij	*	*	*	*	*	*	*	*	*	*	*	*	*	*	*	*	*	*	*	*	*
2G#X\	Je-	pa-	1.ryy	.	.	.	.	.	1.ryy	.	.	.	.	1.ryy	.	.	.	.	1.ryy	.	.	.	.
2G#\	-su	-ti-	.	.	.	.	.	.	.	.	.	.	.	.	.	.	.	.	.	.	.	.	.
2G#\	Rex	-en-	.	.	.	.	.	.	.	.	.	.	.	.	.	.	.	.	.	.	.	.	.
=50	=50	=50	=50	=50	=50	=50	=50	=50	=50	=50	=50	=50	=50	=50	=50	=50	=50	=50	=50	=50	=50	=50	=50
1A	bo-	-ti-	1.ryy	.	.	.	.	.	1.ryy	.	.	.	.	1.ryy	.	.	.	.	1.ryy	.	.	.	.
2A,<\	-ne.	-am	.	.	.	.	.	.	.	.	.	.	.	.	.	.	.	.	.	.	.	.	.
*	*Xij	*Xij	*	*	*	*	*	*	*	*	*	*	*	*	*	*	*	*	*	*	*	*	*
=51	=51	=51	=51	=51	=51	=51	=51	=51	=51	=51	=51	=51	=51	=51	=51	=51	=51	=51	=51	=51	=51	=51	=51
2A\	Je-	con-	1.ryy	.	.	.	.	.	1.ryy	.	.	.	.	1.ryy	.	.	.	.	1.ryy	.	.	.	.
2A\	-su	-ſer-	.	.	.	.	.	.	.	.	.	.	.	.	.	.	.	.	.	.	.	.	.
2A\	Rex	-vat	.	.	.	.	.	.	.	.	.	.	.	.	.	.	.	.	.	.	.	.	.
=52	=52	=52	=52	=52	=52	=52	=52	=52	=52	=52	=52	=52	=52	=52	=52	=52	=52	=52	=52	=52	=52	=52	=52
2.B\	bo-	pa-	1.ryy	.	.	.	.	.	1.ryy	.	.	.	.	1.ryy	.	.	.	.	1.ryy	.	.	.	.
4A\	.	.	.	.	.	.	.	.	.	.	.	.	.	.	.	.	.	.	.	.	.	.	.
(4G\	.	.	.	.	.	.	.	.	.	.	.	.	.	.	.	.	.	.	.	.	.	.	.
4F#\)	.	.	.	.	.	.	.	.	.	.	.	.	.	.	.	.	.	.	.	.	.	.	.
=53	=53	=53	=53	=53	=53	=53	=53	=53	=53	=53	=53	=53	=53	=53	=53	=53	=53	=53	=53	=53	=53	=53	=53
2E,<\	-ne	-ti-	1.ryy	.	.	.	.	.	1.ryy	.	.	.	.	1.ryy	.	.	.	.	1.ryy	.	.	.	.
2B\	cae-	-en-	.	.	.	.	.	.	.	.	.	.	.	.	.	.	.	.	.	.	.	.	.
2BB/	-li-	-ti-	.	.	.	.	.	.	.	.	.	.	.	.	.	.	.	.	.	.	.	.	.
=54	=54	=54	=54	=54	=54	=54	=54	=54	=54	=54	=54	=54	=54	=54	=54	=54	=54	=54	=54	=54	=54	=54	=54
2E,<\	-tum	-am.	1.ryy	.	.	.	.	.	1.ryy	.	.	.	.	1.ryy	.	.	.	.	1.ryy	.	.	.	.
2G\	Je-	pa-	.	.	.	.	.	.	.	.	.	.	.	.	.	.	.	.	.	.	.	.	.
2E\	-su	-ti-	.	.	.	.	.	.	.	.	.	.	.	.	.	.	.	.	.	.	.	.	.
=55	=55	=55	=55	=55	=55	=55	=55	=55	=55	=55	=55	=55	=55	=55	=55	=55	=55	=55	=55	=55	=55	=55	=55
2AA/	Rex	-en-	1.ryy	.	.	.	.	.	1.ryy	.	.	.	.	1.ryy	.	.	.	.	1.ryy	.	.	.	.
2A\	bo-	.	.	.	.	.	.	.	.	.	.	.	.	.	.	.	.	.	.	.	.	.	.
2E\	-ne	.	.	.	.	.	.	.	.	.	.	.	.	.	.	.	.	.	.	.	.	.	.
=56	=56	=56	=56	=56	=56	=56	=56	=56	=56	=56	=56	=56	=56	=56	=56	=56	=56	=56	=56	=56	=56	=56	=56
1AA	cae-	.	1.ryy	.	.	.	.	.	1.ryy	.	.	.	.	1.ryy	.	.	.	.	1.ryy	.	.	.	.
2AA/	-li-	-ti-	.	.	.	.	.	.	.	.	.	.	.	.	.	.	.	.	.	.	.	.	.
=57-	=57	=57	=57	=57	=57	=57	=57	=57	=57	=57	=57	=57	=57	=57	=57	=57	=57	=57	=57	=57	=57	=57	=57
!LO:N:vis=0	!	!	!	!	!	!	!	!	!	!	!	!	!	!	!	!	!	!	!	!	!	!	!
1.E;	-tu(m).	-am	1.ryy	.	.	.	.	.	1.ryy	.	.	.	.	1.ryy	.	.	.	.	1.ryy	.	.	.	.
!LO:LB:g=original	!	!	!	!	!	!	!	!	!	!	!	!	!	!	!	!	!	!	!	!	!	!	!
=58||	=58||	=58||	=58||	=58||	=58||	=58||	=58||	=58||	=58||	=58||	=58||	=58||	=58||	=58||	=58||	=58||	=58||	=58||	=58||	=58||	=58||	=58||	=58||
2G\	5. Quae	.	1.ryy	.	.	.	.	.	1.ryy	.	.	.	.	1.ryy	.	.	.	.	1.ryy	.	.	.	.
2C/	vox	.	.	.	.	.	.	.	.	.	.	.	.	.	.	.	.	.	.	.	.	.	.
2D/	quae	.	.	.	.	.	.	.	.	.	.	.	.	.	.	.	.	.	.	.	.	.	.
=59	=59	=59	=59	=59	=59	=59	=59	=59	=59	=59	=59	=59	=59	=59	=59	=59	=59	=59	=59	=59	=59	=59	=59
2.GG/	po-	.	1.ryy	.	.	.	.	.	1.ryy	.	.	.	.	1.ryy	.	.	.	.	1.ryy	.	.	.	.
4GG/	-te-	.	.	.	.	.	.	.	.	.	.	.	.	.	.	.	.	.	.	.	.	.	.
2GG/	-rit	.	.	.	.	.	.	.	.	.	.	.	.	.	.	.	.	.	.	.	.	.	.
=60	=60	=60	=60	=60	=60	=60	=60	=60	=60	=60	=60	=60	=60	=60	=60	=60	=60	=60	=60	=60	=60	=60	=60
2.G\	lin-	.	1.ryy	.	.	.	.	.	1.ryy	.	.	.	.	1.ryy	.	.	.	.	1.ryy	.	.	.	.
4E\	-gua	.	.	.	.	.	.	.	.	.	.	.	.	.	.	.	.	.	.	.	.	.	.
2D\	re-	.	.	.	.	.	.	.	.	.	.	.	.	.	.	.	.	.	.	.	.	.	.
=61	=61	=61	=61	=61	=61	=61	=61	=61	=61	=61	=61	=61	=61	=61	=61	=61	=61	=61	=61	=61	=61	=61	=61
2.A\	-te-	.	1.ryy	.	.	.	.	.	1.ryy	.	.	.	.	1.ryy	.	.	.	.	1.ryy	.	.	.	.
4AA/	-xe-	.	.	.	.	.	.	.	.	.	.	.	.	.	.	.	.	.	.	.	.	.	.
2D/	-re	.	.	.	.	.	.	.	.	.	.	.	.	.	.	.	.	.	.	.	.	.	.
=62	=62	=62	=62	=62	=62	=62	=62	=62	=62	=62	=62	=62	=62	=62	=62	=62	=62	=62	=62	=62	=62	=62	=62
2D/	quae	.	1.ryy	.	.	.	.	.	1.ryy	.	.	.	.	1.ryy	.	.	.	.	1.ryy	.	.	.	.
2BB/	Tu	.	.	.	.	.	.	.	.	.	.	.	.	.	.	.	.	.	.	.	.	.	.
2E\	Mar-	.	.	.	.	.	.	.	.	.	.	.	.	.	.	.	.	.	.	.	.	.	.
=63	=63	=63	=63	=63	=63	=63	=63	=63	=63	=63	=63	=63	=63	=63	=63	=63	=63	=63	=63	=63	=63	=63	=63
2.AA/	-ty-	.	1.ryy	.	.	.	.	.	1.ryy	.	.	.	.	1.ryy	.	.	.	.	1.ryy	.	.	.	.
8BB/L	-ri-	.	.	.	.	.	.	.	.	.	.	.	.	.	.	.	.	.	.	.	.	.	.
8C/J	.	.	.	.	.	.	.	.	.	.	.	.	.	.	.	.	.	.	.	.	.	.	.
2D/	-b(us)	.	.	.	.	.	.	.	.	.	.	.	.	.	.	.	.	.	.	.	.	.	.
=64	=64	=64	=64	=64	=64	=64	=64	=64	=64	=64	=64	=64	=64	=64	=64	=64	=64	=64	=64	=64	=64	=64	=64
2G\	mu-	.	1.ryy	.	.	.	.	.	1.ryy	.	.	.	.	1.ryy	.	.	.	.	1.ryy	.	.	.	.
2A\	-ne-	.	.	.	.	.	.	.	.	.	.	.	.	.	.	.	.	.	.	.	.	.	.
2A\	-ra	.	.	.	.	.	.	.	.	.	.	.	.	.	.	.	.	.	.	.	.	.	.
=65	=65	=65	=65	=65	=65	=65	=65	=65	=65	=65	=65	=65	=65	=65	=65	=65	=65	=65	=65	=65	=65	=65	=65
2.B\	prae-	.	1.ryy	.	.	.	.	.	1.ryy	.	.	.	.	1.ryy	.	.	.	.	1.ryy	.	.	.	.
4BB/	-pa-	.	.	.	.	.	.	.	.	.	.	.	.	.	.	.	.	.	.	.	.	.	.
2E\	-ras	.	.	.	.	.	.	.	.	.	.	.	.	.	.	.	.	.	.	.	.	.	.
=66	=66	=66	=66	=66	=66	=66	=66	=66	=66	=66	=66	=66	=66	=66	=66	=66	=66	=66	=66	=66	=66	=66	=66
1.r	.	.	1.ryy	.	.	.	.	.	1.ryy	.	.	.	.	1.ryy	.	.	.	.	1.ryy	.	.	.	.
=67	=67	=67	=67	=67	=67	=67	=67	=67	=67	=67	=67	=67	=67	=67	=67	=67	=67	=67	=67	=67	=67	=67	=67
2E\	ru-	.	1.ryy	.	.	.	.	.	1.ryy	.	.	.	.	1.ryy	.	.	.	.	1.ryy	.	.	.	.
(4A\	-bri-	.	.	.	.	.	.	.	.	.	.	.	.	.	.	.	.	.	.	.	.	.	.
4B\)	.	.	.	.	.	.	.	.	.	.	.	.	.	.	.	.	.	.	.	.	.	.	.
4A\	-nam	.	.	.	.	.	.	.	.	.	.	.	.	.	.	.	.	.	.	.	.	.	.
4G\	.	.	.	.	.	.	.	.	.	.	.	.	.	.	.	.	.	.	.	.	.	.	.
=68	=68	=68	=68	=68	=68	=68	=68	=68	=68	=68	=68	=68	=68	=68	=68	=68	=68	=68	=68	=68	=68	=68	=68
2.F#X\	flu-	.	1.ryy	.	.	.	.	.	1.ryy	.	.	.	.	1.ryy	.	.	.	.	1.ryy	.	.	.	.
4F#\	-i-	.	.	.	.	.	.	.	.	.	.	.	.	.	.	.	.	.	.	.	.	.	.
2F#\	-do	.	.	.	.	.	.	.	.	.	.	.	.	.	.	.	.	.	.	.	.	.	.
!LO:LB:g=original	!	!	!	!	!	!	!	!	!	!	!	!	!	!	!	!	!	!	!	!	!	!	!
=69	=69	=69	=69	=69	=69	=69	=69	=69	=69	=69	=69	=69	=69	=69	=69	=69	=69	=69	=69	=69	=69	=69	=69
2G\	ru-	.	1.ryy	.	.	.	.	.	1.ryy	.	.	.	.	1.ryy	.	.	.	.	1.ryy	.	.	.	.
2.BB/	-bri	.	.	.	.	.	.	.	.	.	.	.	.	.	.	.	.	.	.	.	.	.	.
4BB/	nam	.	.	.	.	.	.	.	.	.	.	.	.	.	.	.	.	.	.	.	.	.	.
=70	=70	=70	=70	=70	=70	=70	=70	=70	=70	=70	=70	=70	=70	=70	=70	=70	=70	=70	=70	=70	=70	=70	=70
2.C/	flu-	.	1.ryy	.	.	.	.	.	1.ryy	.	.	.	.	1.ryy	.	.	.	.	1.ryy	.	.	.	.
4C/	-i-	.	.	.	.	.	.	.	.	.	.	.	.	.	.	.	.	.	.	.	.	.	.
2C/	-do	.	.	.	.	.	.	.	.	.	.	.	.	.	.	.	.	.	.	.	.	.	.
=71	=71	=71	=71	=71	=71	=71	=71	=71	=71	=71	=71	=71	=71	=71	=71	=71	=71	=71	=71	=71	=71	=71	=71
*	*ij	*	*	*	*	*	*	*	*	*	*	*	*	*	*	*	*	*	*	*	*	*	*
2C/	ru-	.	1.ryy	.	.	.	.	.	1.ryy	.	.	.	.	1.ryy	.	.	.	.	1.ryy	.	.	.	.
2AA/	-bri	.	.	.	.	.	.	.	.	.	.	.	.	.	.	.	.	.	.	.	.	.	.
2AA/	nam	.	.	.	.	.	.	.	.	.	.	.	.	.	.	.	.	.	.	.	.	.	.
=72	=72	=72	=72	=72	=72	=72	=72	=72	=72	=72	=72	=72	=72	=72	=72	=72	=72	=72	=72	=72	=72	=72	=72
2.D\	flu-	.	1.ryy	.	.	.	.	.	1.ryy	.	.	.	.	1.ryy	.	.	.	.	1.ryy	.	.	.	.
4D\	-i-	.	.	.	.	.	.	.	.	.	.	.	.	.	.	.	.	.	.	.	.	.	.
2D\	-do	.	.	.	.	.	.	.	.	.	.	.	.	.	.	.	.	.	.	.	.	.	.
*	*Xij	*	*	*	*	*	*	*	*	*	*	*	*	*	*	*	*	*	*	*	*	*	*
=73	=73	=73	=73	=73	=73	=73	=73	=73	=73	=73	=73	=73	=73	=73	=73	=73	=73	=73	=73	=73	=73	=73	=73
2.D\	San-	.	1.ryy	.	.	.	.	.	1.ryy	.	.	.	.	1.ryy	.	.	.	.	1.ryy	.	.	.	.
4BB/	-gui-	.	.	.	.	.	.	.	.	.	.	.	.	.	.	.	.	.	.	.	.	.	.
2AA/	-ne	.	.	.	.	.	.	.	.	.	.	.	.	.	.	.	.	.	.	.	.	.	.
=74	=74	=74	=74	=74	=74	=74	=74	=74	=74	=74	=74	=74	=74	=74	=74	=74	=74	=74	=74	=74	=74	=74	=74
1E	ful-	.	1.ryy	.	.	.	.	.	1.ryy	.	.	.	.	1.ryy	.	.	.	.	1.ryy	.	.	.	.
2E\	-gi-	.	.	.	.	.	.	.	.	.	.	.	.	.	.	.	.	.	.	.	.	.	.
=75	=75	=75	=75	=75	=75	=75	=75	=75	=75	=75	=75	=75	=75	=75	=75	=75	=75	=75	=75	=75	=75	=75	=75
1AA,<	-dis	.	1.ryy	.	.	.	.	.	1.ryy	.	.	.	.	1.ryy	.	.	.	.	1.ryy	.	.	.	.
2C/	cin-	.	.	.	.	.	.	.	.	.	.	.	.	.	.	.	.	.	.	.	.	.	.
=76	=76	=76	=76	=76	=76	=76	=76	=76	=76	=76	=76	=76	=76	=76	=76	=76	=76	=76	=76	=76	=76	=76	=76
1D	-gunt	.	1.ryy	.	.	.	.	.	1.ryy	.	.	.	.	1.ryy	.	.	.	.	1.ryy	.	.	.	.
(4E\	.	.	.	.	.	.	.	.	.	.	.	.	.	.	.	.	.	.	.	.	.	.	.
4BB\)	.	.	.	.	.	.	.	.	.	.	.	.	.	.	.	.	.	.	.	.	.	.	.
=77	=77	=77	=77	=77	=77	=77	=77	=77	=77	=77	=77	=77	=77	=77	=77	=77	=77	=77	=77	=77	=77	=77	=77
2.C/	tem-	.	1.ryy	.	.	.	.	.	1.ryy	.	.	.	.	1.ryy	.	.	.	.	1.ryy	.	.	.	.
4C/	-po-	.	.	.	.	.	.	.	.	.	.	.	.	.	.	.	.	.	.	.	.	.	.
2D/	-ra	.	.	.	.	.	.	.	.	.	.	.	.	.	.	.	.	.	.	.	.	.	.
=78	=78	=78	=78	=78	=78	=78	=78	=78	=78	=78	=78	=78	=78	=78	=78	=78	=78	=78	=78	=78	=78	=78	=78
2BB/	lau-	.	1.ryy	.	.	.	.	.	1.ryy	.	.	.	.	1.ryy	.	.	.	.	1.ryy	.	.	.	.
2C/	.	.	.	.	.	.	.	.	.	.	.	.	.	.	.	.	.	.	.	.	.	.	.
2D/	-re-	.	.	.	.	.	.	.	.	.	.	.	.	.	.	.	.	.	.	.	.	.	.
=79	=79	=79	=79	=79	=79	=79	=79	=79	=79	=79	=79	=79	=79	=79	=79	=79	=79	=79	=79	=79	=79	=79	=79
1GG,<	-is,	.	1.ryy	.	.	.	.	.	1.ryy	.	.	.	.	1.ryy	.	.	.	.	1.ryy	.	.	.	.
2G\	cin-	.	.	.	.	.	.	.	.	.	.	.	.	.	.	.	.	.	.	.	.	.	.
=80	=80	=80	=80	=80	=80	=80	=80	=80	=80	=80	=80	=80	=80	=80	=80	=80	=80	=80	=80	=80	=80	=80	=80
2.D/	-gunt	.	1.ryy	.	.	.	.	.	1.ryy	.	.	.	.	1.ryy	.	.	.	.	1.ryy	.	.	.	.
4D/	tem-	.	.	.	.	.	.	.	.	.	.	.	.	.	.	.	.	.	.	.	.	.	.
2G\	-po-	.	.	.	.	.	.	.	.	.	.	.	.	.	.	.	.	.	.	.	.	.	.
=81	=81	=81	=81	=81	=81	=81	=81	=81	=81	=81	=81	=81	=81	=81	=81	=81	=81	=81	=81	=81	=81	=81	=81
2C/	-ra	.	1.ryy	.	.	.	.	.	1.ryy	.	.	.	.	1.ryy	.	.	.	.	1.ryy	.	.	.	.
2.D/	lau-	.	.	.	.	.	.	.	.	.	.	.	.	.	.	.	.	.	.	.	.	.	.
4D/	-re-	.	.	.	.	.	.	.	.	.	.	.	.	.	.	.	.	.	.	.	.	.	.
=82-	=82	=82	=82	=82	=82	=82	=82	=82	=82	=82	=82	=82	=82	=82	=82	=82	=82	=82	=82	=82	=82	=82	=82
!LO:N:vis=0.	!	!	!	!	!	!	!	!	!	!	!	!	!	!	!	!	!	!	!	!	!	!	!
1.GG;>	-is,	.	1.ryy	.	.	.	.	.	1.ryy	.	.	.	.	1.ryy	.	.	.	.	1.ryy	.	.	.	.
=83||	=83||	=83||	=83||	=83||	=83||	=83||	=83||	=83||	=83||	=83||	=83||	=83||	=83||	=83||	=83||	=83||	=83||	=83||	=83||	=83||	=83||	=83||	=83||
!LO:TX:t=P:problem:brak kadencji	!	!	!LO:N:vis=0.	!	!	!	!	!	!LO:N:vis=0.	!	!	!	!	!LO:N:vis=0.	!	!	!	!	!LO:N:vis=0.	!	!	!	!
1.ryy	.	.	1.C	.	A-	.	.	A-	1.c	.	.	.	A-	1.e	A-	.	.	A-	1.g	A-	.	.	A-
=84	=84	=84	=84-	=84	=84	=84	=84	=84	=84-	=84	=84	=84	=84	=84	=84	=84	=84	=84	=84	=84	=84	=84	=84
!	!	!	!LO:N:vis=0	!	!	!	!	!	!LO:N:vis=0.	!	!	!	!	!LO:N:vis=0.	!	!	!	!	!LO:N:vis=0	!	!	!	!
1.ryy	.	.	1.GG;>	.	-men	.	.	-men	1.B;>	.	.	.	-men	1.d;	-men	.	.	-men.	1.g;>	-men	.	.	-men.
!	!	!	!LO:PB:g=original	!	!	!	!	!	!LO:PB:g=original	!	!	!	!	!LO:PB:g=original	!	!	!	!	!LO:PB:g=original	!	!	!	!
==	==	==	==	==	==	==	==	==	==	==	==	==	==	==	==	==	==	==	==	==	==	==	==
*-	*-	*-	*-	*-	*-	*-	*-	*-	*-	*-	*-	*-	*-	*-	*-	*-	*-	*-	*-	*-	*-	*-	*-
!!!system-decoration: [(s1,s2,s3,s4)]s5
!!!RDF**kern: < = below
!!!RDF**kern: > = above
!!!ENC: Marta Chmielewska
!!!END: 2021-08-06
!!!ENC: Andrzej Borzym
!!!END: 2021-05-21
